!!!!SEGMENT: Ric3013-Jay_veu_que_souloye--Recueil_des_fleurs.krn
!!!id: Ric3013
!!!AGN: Chanson
!!!voices: 4
!!!COM: Jean Richafort
!!!OTL: J'ay veu que souloye (Recueil des fleurs)
**kern	**kern	**kern
*part3	*part2	*part1
*staff3	*staff2	*staff1
*I"Bassus	*I"Tenor	*I"Superius
*I'B	*I'T	*I'S
*clefF4	*clefGv2	*clefG2
*k[b-]	*k[b-]	*k[b-]
*F:	*F:	*F:
*M2/1	*M2/1	*M2/1
*met(C|)	*met(C|)	*met(C|)
=1	=1	=1
1G	1r	0r
2F	2r	.
2G	2G	.
=2	=2	=2
1A	1F	1r
1d	1G	2r
.	.	2g
=3	=3	=3
2c	1A	1f
4B-y	.	.
4A	.	.
1B-y	1d	1g
=4	=4	=4
1A	2c	1a
.	4B-y	.
.	4A	.
1r	1B-y	1dd
=5	=5	=5
2r	1A	2cc
2F	.	4b-y
.	.	4a
2G	1r	1b-y
2G	.	.
=6	=6	=6
2F	1r	1a
2D	.	.
2E-i	2r	2r
4D	2d	2f
4C	.	.
=7	=7	=7
4BB-y	1d	1b-y
4C	.	.
4D	.	.
4E	.	.
4F	1c	1a
4G	.	.
4A	.	.
4F	.	.
=8	=8	=8
2G	2B-y	2g
2F	2.c	2.a
1E	.	.
.	4B-y	4g
.	4A	[2g
.	4G	.
=9	=9	=9
1D	1A	2g]
.	.	2f#i
2r	1G	1g
2G	.	.
=10	=10	=10
2F	1r	2r
2G	.	2g
2A	2r	2f
[2d	2G	2g
=11	=11	=11
2d]	1F	1a
2c	.	.
1B-y	1G	1dd
=12	=12	=12
2A	1A	2.cc
2F	.	.
.	.	8b-yL
.	.	8aJ
1G	1d	1b-y
=13	=13	=13
2C	2c	1a
2D	4B-y	.
.	4A	.
4BB-y	1B-y	1dd
4C	.	.
4D	.	.
4E	.	.
=14	=14	=14
1F	1A	2cc
.	.	2cc
2G	1r	2b-y
2G	.	4a
.	.	4g
=15	=15	=15
2F	1r	1a
2D	.	.
2E-i	2r	2g
4D	2d	2f
4C	.	.
=16	=16	=16
4BB-y	1d	1b-y
4C	.	.
4D	.	.
4E	.	.
4F	1c	1a
4G	.	.
4A	.	.
4F	.	.
=17	=17	=17
2G	2B-y	2g
2F	2.c	2.a
1E	.	.
.	4B-y	4g
.	4A	[2g
.	4G	.
=18	=18	=18
1D	1A	2g]
.	.	2f#i
2r	1G	1g
2G	.	.
=19	=19	=19
2G	2r	0r
2F	2d	.
2G	2d	.
2A	2f	.
=20	=20	=20
2G	2e	1r
1F	2.d	.
.	.	2r
.	4c	.
2E	[2c	2cc
=21	=21	=21
1D	2c]	2dd
.	2B-y	2ff
2C	2c	2ee
2G	2d	[2dd
=22	=22	=22
2c	2e	4dd]
.	.	4cc
2F	2f	1cc
1G	1d	.
.	.	2bnXi
=23	=23	=23
1C	1c	1cc
2r	2r	2r
2G	2d	2b-y
=24	=24	=24
2G	2d	2b-y
2B-y	2d	2b-y
2F	2c	2a
2G	2B-y	2g
=25	=25	=25
1D	1A	1f
2r	1r	1r
2G	.	.
=26	=26	=26
2F	2r	0r
2G	2G	.
1A	1F	.
=27	=27	=27
1d	1G	2r
.	.	2g
2c	1A	1f
4B-y	.	.
4A	.	.
=28	=28	=28
1B-y	1d	1g
1A	2c	1a
.	4B-y	.
.	4A	.
=29	=29	=29
1r	1B-y	1dd
2r	1A	2.cc
2F	.	.
.	.	8b-yL
.	.	8aJ
=30	=30	=30
2G	2r	1b-y
2G	2d	.
2F	1d	2a
2D	.	2f
=31	=31	=31
2E	1c	2g
2F	.	2a
2G	2B-y	2b-y
2C	[2c	[2a
=32	=32	=32
1E	4c]	4a]
.	4B-y	4g
.	4A	1g
.	4G	.
1D	1A	.
.	.	2f#i
=33	=33	=33
2r	1G	1g
2G	.	.
2F	2r	1r
2G	2G	.
=34	=34	=34
1A	1F	1r
1d	1G	2r
.	.	2g
=35	=35	=35
2c	1A	1f
4B-y	.	.
4A	.	.
1B-y	1d	1g
=36	=36	=36
1A	2c	1a
.	4B-y	.
.	4A	.
1r	1B-y	1dd
=37	=37	=37
2r	1A	2.cc
2F	.	.
.	.	8b-yL
.	.	8aJ
2G	1r	1b-y
2G	.	.
=38	=38	=38
2F	1r	1a
2D	.	.
2E-X	2r	2r
4D	2d	2f
4C	.	.
=39	=39	=39
4BB-y	1d	1b-y
4C	.	.
4D	.	.
4E	.	.
4F	1c	1a
4G	.	.
4A	.	.
4F	.	.
=40	=40	=40
2G	2B-y	2g
2F	2.c	2.a
1E	.	.
.	4B-y	4g
.	4A	[2g
.	4G	.
=41	=41	=41
1D	1A	2g]
.	.	2f#i
[1Gl	[1Gl	[1gl
=42	=42	=42
00G]	00G]	00g]
==	==	==
*-	*-	*-
!!!system-decoration: [*]
!!!RDF**kern: i = editorial accidental
!!!RDF**kern: l = terminal long
!!!ENC: Benjamin Ory
!!!END: 2024/12/7
!!!EED: Benjamin Ory
!!!EEV: 2024/12/07
!!!YEC: Copyright 2024 Benjamin Ory, All Rights Reserved
!!!ONB: Translated from MusicXML on 2024/12/07